Suru++-Ubuntu/apps/symbolic/conky-manager-symbolic.svg

<svg width="16" height="16" version="1.1" xmlns="http://www.w3.org/2000/svg">
 <path d="m0.5 3v10h6v-1h-5v-8h5v-1z" style="fill:#808080"/>
 <path d="m7.5 13v-10h1l3 2.6324626 3-2.6324626h1v10h-1v-8.5712064l-3 2.5712064-3-2.5303689v8.5303689z" style="fill:#808080"/>
</svg>

<svg xmlns="http://www.w3.org/2000/svg" width="16" height="16" version="1.1">
 <path style="fill:#808080" d="m 0.5,3 v 10 h 6 v -1 h -5 V 4 h 5 V 3 Z"/>
 <path style="fill:#808080" d="M 7.5,13 V 3 h 1 l 3,2.6324626 L 14.5,3 h 1 v 10 h -1 V 4.4287936 L 11.5,7 8.5,4.4696311 V 13 Z"/>
</svg>
